src/icons/partners-mart.svg

<svg width="300" height="87" viewBox="0 0 300 87" fill="none" xmlns="http://www.w3.org/2000/svg">
<path fill-rule="evenodd" clip-rule="evenodd" d="M163.318 28.332L162.273 28.3664C161.632 28.505 160.988 28.6457 160.425 29.001C159.874 29.3488 159.378 29.7923 158.881 30.2359C158.481 30.5937 158.08 30.9515 157.651 31.2591C157.373 31.4582 157.017 31.6338 156.652 31.814C156.001 32.1353 155.319 32.4715 154.996 32.9834C154.711 33.4344 154.709 33.9451 154.787 34.4518C154.939 35.4353 154.398 36.5173 153.891 37.529C153.662 37.9872 153.44 38.4311 153.293 38.8448L151.141 44.8576C150.697 45.9456 150.186 47.1763 149.458 48.1053C149.045 48.6327 148.519 48.9982 148.014 49.3493C147.029 50.0338 146.123 50.6633 146.285 52.3303C146.353 53.0357 146.469 53.895 146.707 54.5617C146.748 54.6757 146.83 54.7883 146.91 54.8967C146.99 55.0057 147.066 55.1106 147.094 55.2083C147.118 55.2897 147.037 55.5874 146.98 55.7966C146.959 55.8729 146.941 55.9375 146.933 55.9754C146.745 56.8577 146.549 57.7334 146.272 58.5934C146.197 58.8279 146.103 59.09 146.002 59.3708C145.415 61.0042 144.6 63.2711 145.945 64.4381C146.307 64.7525 146.844 64.8281 147.31 64.7805C147.939 64.7165 148.338 64.4285 148.717 63.9358C149.238 63.257 149.502 62.3636 149.751 61.5162C149.822 61.2775 149.891 61.0424 149.964 60.8167L151.267 57.1304C151.614 56.2277 152.052 55.3582 152.488 54.4934C152.562 54.3469 152.636 54.2004 152.709 54.054L152.771 53.966C153.12 53.5281 153.691 53.37 154.234 53.2198C154.387 53.1775 154.537 53.1358 154.68 53.0887C154.887 53.0204 155.093 52.951 155.3 52.8815C156.24 52.5658 157.184 52.2485 158.148 52.0263C158.624 51.9169 159.109 51.8238 159.595 51.7305C160.576 51.542 161.562 51.3525 162.491 51.0253C162.556 52.5897 162.46 54.1496 162.365 55.7102C162.271 57.2505 162.177 58.7915 162.237 60.3384C162.239 60.414 162.242 60.4922 162.245 60.5726C162.271 61.3641 162.304 62.3607 162.742 62.9834C163.177 63.2314 163.438 63.3398 163.953 63.2218L164.218 63.1438L164.363 63.1051C164.849 62.9688 165.214 62.7301 165.47 62.2831C165.731 61.8281 165.859 61.2539 165.978 60.7195C166.006 60.5906 166.035 60.4641 166.064 60.3421C166.593 58.1483 166.87 55.7923 167.136 53.5269C167.166 53.2705 167.196 53.0153 167.226 52.7617C167.25 52.5619 167.26 52.3603 167.271 52.1587C167.287 51.856 167.303 51.5531 167.363 51.256C167.445 50.8504 167.574 50.4504 167.702 50.0497C167.914 49.3901 168.126 48.7284 168.135 48.0363C168.143 47.5012 168.027 46.9473 167.911 46.3994C167.843 46.0739 167.775 45.7504 167.734 45.4342L167.362 40.8618C167.319 40.2871 167.331 39.6868 167.343 39.0817C167.366 37.9705 167.388 36.8435 167.071 35.8305C166.922 35.3541 166.731 34.9084 166.383 34.5414C166.184 34.3318 165.45 33.9095 164.738 33.4998C163.973 33.0598 163.233 32.6343 163.208 32.5021C163.193 32.4219 163.316 32.1243 163.409 31.8977C163.449 31.8023 163.483 31.7194 163.499 31.6707C163.779 30.8447 164.253 28.8794 163.318 28.332ZM161.181 39.7656C160.657 39.1773 160.143 38.7316 159.359 38.5449C158.862 39.4712 158.457 40.4401 158.052 41.4092C157.805 42.0002 157.558 42.5912 157.291 43.1726C157.04 43.717 156.763 44.2578 156.485 44.8004C155.971 45.8014 155.455 46.8083 155.098 47.8544L158.08 47.8077L162.177 47.4457C162.197 47.0576 162.23 46.6472 162.264 46.2234C162.443 44.0014 162.651 41.4128 161.181 39.7656Z" fill="currentColor"/>
<path d="M115.538 30C115.881 30.019 116.181 29.9496 116.424 30.2273C117.578 31.5486 116.858 33.3799 116.762 34.8953C116.52 38.692 117.324 43.1774 119.845 46.1484C120.165 46.2021 120.475 46.2207 120.801 46.2161C121.52 46.2064 122.075 45.9627 122.713 45.6614C125.792 44.2067 127.631 40.848 129.624 38.248C130.251 37.429 130.962 36.6713 131.693 35.9443C132.646 34.9953 134.49 33.5496 135.891 33.5502C136.261 33.8012 136.263 33.8586 136.395 34.2872C137.081 36.5193 136.428 39.441 136.021 41.692C135.401 45.1277 134.264 48.5658 133.312 51.9318C132.517 54.7462 131.915 58.1279 130.504 60.6836C129.998 61.6009 129.28 62.2132 128.268 62.4956C127.788 62.6299 127.418 62.7059 126.973 62.4586C126.284 60.7539 127.268 56.4858 127.691 54.5795L129.301 45.1554C126.602 46.9364 124.683 49.6364 121.78 51.1658C121.238 51.4515 120.626 51.7941 120.003 51.8028C119.274 51.8125 118.33 51.7535 117.676 51.4311C116.439 50.8221 115.375 49.2848 114.366 48.3318C113.531 49.7978 113.498 51.8228 113.287 53.4681C113.184 54.2715 112.947 55.0402 112.83 55.8265C112.637 57.1142 112.373 61.7632 111.46 62.5906C110.522 63.4399 108.859 63.1586 107.685 63.1209C107.342 60.7276 107.705 58.0442 107.896 55.6382C107.989 54.4572 107.887 53.0375 108.387 51.9351L108.491 51.7228C108.366 51.4068 108.367 51.2064 108.399 50.8788L108.876 47.4014L109.358 42.711C109.471 41.8843 109.671 41.062 109.761 40.2343C109.933 38.634 109.664 36.9866 109.879 35.3879C109.962 34.7783 110.076 34.1169 110.344 33.5612C111.315 31.5491 113.552 30.6205 115.538 30Z" fill="currentColor"/>
<path d="M81.4172 16.0036C81.9126 15.9771 82.3737 16.0996 82.8406 16.2642C83.6106 16.5358 84.2673 17.1787 84.6222 17.954C84.7823 18.3036 84.9203 18.6494 84.9725 19.0388C85.0914 19.9268 84.8161 20.8002 84.3176 21.5062C83.6652 22.43 82.6159 22.8579 81.5787 23C80.7427 22.9604 80.0484 22.7291 79.3744 22.1877C78.6497 21.6058 78.1229 20.6117 78.012 19.6465C77.9271 18.9078 78.305 17.917 78.7298 17.3507C79.3942 16.4649 80.4048 16.129 81.4172 16.0036Z" fill="currentColor"/>
<path d="M74.2264 26.018C74.4646 25.9939 74.7255 25.9844 74.955 26.052L75 26.1336C73.6715 27.3689 72.3557 28.6439 71.4749 30.2072C69.5965 33.5412 70.213 37.2752 71.647 40.6454L72.507 42.574C72.714 43.0139 72.9455 43.44 73.0972 43.9007L73.0356 44C72.9474 43.9775 72.8778 43.9655 72.7851 43.9632L72.7019 43.9629L71.6418 43.0542C69.6392 41.3605 67.692 38.9665 67.1362 36.4457C67.0286 35.9577 67.0129 35.4282 67.0025 34.9304C66.9645 33.1091 67.3596 31.4504 68.4512 29.9094C69.7954 28.0117 71.8158 26.4867 74.2264 26.018Z" fill="currentColor"/>
<path d="M90.8443 2C90.9236 2.0308 90.9879 2.06411 91.0552 2.11881C91.2538 2.28021 91.4189 2.67816 91.532 2.90891C92.4276 4.73754 92.7558 6.77977 92.8952 8.80528C92.9991 10.3161 93.0515 11.8791 92.9291 13.3906C92.8559 14.2934 92.7079 15.1538 92.5606 16.0436L92.3583 17.3959C91.9079 19.7049 91.1896 22.0799 90.3435 24.2654C89.5492 26.3168 88.5458 28.3732 87.1252 30.0484C86.8379 30.3849 86.5459 30.732 86.1752 30.9746C86.1086 31.0183 86.0951 30.9958 86.0216 30.9795C85.7561 30.0538 88.0193 24.431 88.4766 23.0607C89.2244 20.8204 89.823 18.5602 90.2745 16.239C90.4531 15.3204 90.6481 14.3916 90.697 13.4546L90.7415 5.08784L90.7535 3.22532C90.7575 2.815 90.7297 2.39706 90.8443 2Z" fill="currentColor"/>
<path d="M82.8594 39C83.2521 39.0182 83.5307 39.1286 83.8383 39.3722C84.5495 39.9356 85.0021 41.1095 85.3875 41.9227C88.1545 47.7594 89.5445 54.213 90.8419 60.4986L92.7392 69.6256L94.7092 78.8035C95.0092 80.01 95.5551 81.1929 96.0523 82.3316C96.3957 83.1182 96.9091 84.0463 97 84.9016L96.9211 84.9875C96.512 85.0606 96.0379 84.7972 95.6841 84.6117C94.541 84.0124 93.762 83.0394 93.223 81.8905C92.6288 80.6249 92.308 79.2104 91.9288 77.8705L90.2641 71.8528L86.1668 57.5632L84.2242 50.8309L83.8197 49.486C83.6827 48.9938 83.5512 48.0771 83.1415 47.7409C83.04 47.6577 82.9026 47.6006 82.7698 47.634C82.2102 47.7743 81.5265 49.6161 81.3222 50.1674C80.3149 52.8844 79.6675 55.7558 78.8588 58.5366L74.7607 72.5457L73.8996 75.5993C73.4729 77.196 73.0485 78.7854 72.4846 80.3416C72.2222 81.0657 71.9425 81.8776 71.4661 82.4953C71.3601 82.6328 71.3077 82.6731 71.1376 82.7019L71.0274 82.5851C70.9311 81.8878 71.1136 81.0136 71.1893 80.3083L71.909 75.7286L73.4692 68.143L77.9728 49.6321L78.947 45.7615C79.1324 45.0324 79.3 44.2976 79.5414 43.584C79.9582 42.3521 80.6315 40.9983 81.3939 39.9322C81.7716 39.404 82.2088 39.1146 82.8594 39Z" fill="currentColor"/>
<path fill-rule="evenodd" clip-rule="evenodd" d="M192.377 31.2247L188.017 30.666C186.013 30.7954 184.04 31.038 182.619 32.6224C181.101 34.3153 181.268 36.66 181.422 38.8162C181.433 38.962 181.443 39.107 181.453 39.2508L181.697 48.7246C181.656 48.7449 181.613 48.7658 181.568 48.7872C180.759 49.1805 179.59 49.748 179.28 50.5953C179.146 50.9639 179.231 51.4926 179.424 51.8266C179.623 52.1736 179.926 52.4916 180.219 52.7986C180.338 52.9239 180.456 53.0474 180.564 53.1703C180.72 53.3473 180.963 53.6353 181.042 53.8583C181.086 53.983 181.071 54.2608 181.059 54.4803C181.054 54.5671 181.05 54.6448 181.05 54.7003C181.053 55.5136 181.02 56.244 180.842 57.0397C180.552 58.3313 180.283 59.679 180.269 61.0064C180.269 61.0628 180.267 61.1221 180.265 61.1829C180.255 61.4746 180.243 61.8028 180.386 62.0317C180.751 62.6181 181.233 63.3147 181.935 63.4737C182.519 63.6057 182.977 63.6371 183.578 63.5861C183.856 63.2446 183.944 62.7854 184.028 62.3508C184.043 62.2739 184.057 62.1977 184.073 62.123C184.147 61.7661 184.216 61.4061 184.284 61.0456C184.417 60.3449 184.55 59.6425 184.729 58.9573C184.965 58.0543 185.277 57.179 185.603 56.3056C187.464 57.293 189.248 58.4158 191.032 59.5389C192.709 60.5943 194.386 61.6501 196.128 62.5941C197.813 63.5071 199.549 64.3781 201.409 64.8684C202.099 65.0454 202.662 65.0908 203.371 65.0648C203.824 64.6634 203.955 64.1077 203.993 63.5071C204.041 62.7687 203.765 61.9304 203.251 61.383C202.394 60.4692 201.183 59.7713 200.023 59.1025C199.541 58.8246 199.067 58.5516 198.632 58.2703L195.484 56.0856C195.349 55.994 195.213 55.9021 195.077 55.8099C193.297 54.6043 191.45 53.3531 189.861 51.9289C189.813 51.8855 189.755 51.8346 189.69 51.7778C189.26 51.4017 188.539 50.7705 188.422 50.3746C188.594 50.2709 188.765 50.165 188.938 50.0586C189.513 49.7034 190.096 49.3437 190.697 49.0502C191.221 48.7941 191.853 48.5086 192.55 48.1938C196.318 46.4909 201.986 43.9292 202.869 40.5111C203.203 39.2161 202.899 38.0398 202.214 36.9188C200.341 33.8547 195.746 31.985 192.377 31.2247ZM189.131 36.3041C188.146 36.1838 187.012 36.2391 186.021 36.3008L185.452 36.4564L185.188 37.1634L185.368 37.5018L186.188 37.6371C186.912 37.7328 187.626 38.1708 188.047 38.7765C188.44 39.3423 188.359 40.0164 188.281 40.6619C188.28 40.6758 188.278 40.6896 188.276 40.7035C188.093 42.2276 187.74 43.7411 187.389 45.2432C187.3 45.6252 187.211 46.0064 187.125 46.3869C187.458 46.3912 187.858 46.2208 188.212 46.0703C188.324 46.0225 188.431 45.9767 188.531 45.9392C189.935 45.4085 191.276 44.8402 192.583 44.0938C192.7 44.0173 192.821 43.9392 192.945 43.8592C194.473 42.873 196.415 41.6192 196.948 39.8635C196.613 39.0012 194.776 38.2232 193.768 37.7959C193.657 37.7491 193.557 37.7065 193.469 37.6684C192.17 37.1041 190.537 36.4758 189.131 36.3041Z" fill="currentColor"/>
<path d="M221.973 31.7762L228.017 31.6845C229.289 31.6865 230.705 31.5812 231.944 31.8779C232.423 31.9929 233.353 32.2292 233.573 32.6845C233.972 33.5069 233.663 36.0783 233.381 36.9273C233.037 37.1856 232.704 37.1409 232.295 37.1416C230.943 37.1439 229.62 36.8586 228.272 36.7779C228.517 37.9903 229.007 39.0843 228.974 40.3563C228.934 41.8473 228.51 43.352 228.224 44.812L226.332 54.4611C225.834 57.3655 225.95 60.1892 225.68 63.0919C225.6 63.9472 225.093 64.3902 224.479 64.9092C224.128 65.0279 223.763 65.1506 223.388 65.1453C222.935 65.1386 222.517 65.0233 222.208 64.6763C221.394 63.7619 221.383 62.3629 221.292 61.2065C220.977 57.2015 221.363 52.8994 221.831 48.9104C221.923 48.1247 222.178 47.3707 222.269 46.5774C222.621 43.497 223.015 40.3923 223.134 37.2939C221.069 37.6439 218.912 38.5919 216.843 38.662C216.388 38.6773 215.993 38.7139 215.581 38.4966C215.36 38.2146 215.312 38.0243 215.263 37.6659C215.1 36.4756 215.338 34.6072 216.128 33.6392C217.527 31.9225 219.96 31.9702 221.973 31.7762Z" fill="currentColor"/>
</svg>

<svg width="300" height="87" viewBox="0 0 300 87" fill="none" xmlns="http://www.w3.org/2000/svg"><path fill-rule="evenodd" clip-rule="evenodd" d="m163.318 28.332-1.045.034c-.641.139-1.285.28-1.848.635-.551.348-1.047.791-1.544 1.235-.4.358-.801.715-1.23 1.023-.278.2-.634.375-.999.555-.651.321-1.333.657-1.656 1.17-.285.45-.287.961-.209 1.468.152.983-.389 2.065-.896 3.077-.229.458-.451.902-.598 1.316l-2.152 6.013c-.444 1.088-.955 2.318-1.683 3.247-.413.528-.939.893-1.444 1.244-.985.685-1.891 1.314-1.729 2.981.068.706.184 1.565.422 2.232.041.114.123.226.203.335.08.109.156.214.184.311.024.082-.057.38-.114.589-.021.076-.039.14-.047.178-.188.883-.384 1.758-.661 2.618-.075.235-.169.497-.27.778-.587 1.633-1.402 3.9-.057 5.067.362.314.899.39 1.365.343.629-.065 1.028-.353 1.407-.845.521-.679.785-1.572 1.034-2.42.071-.238.14-.474.213-.7l1.303-3.686c.347-.902.785-1.772 1.221-2.637l.221-.439.062-.088c.349-.438.92-.596 1.463-.746a9.7 9.7 0 0 0 .446-.131l.62-.207c.94-.316 1.884-.633 2.848-.856.476-.11.961-.202 1.447-.296.981-.188 1.967-.377 2.896-.705.065 1.565-.031 3.125-.126 4.685-.094 1.54-.188 3.081-.128 4.628l.008.235c.026.791.059 1.788.497 2.41.435.248.696.357 1.211.239l.265-.078.145-.039c.486-.136.851-.375 1.107-.822.261-.455.389-1.03.508-1.564.028-.128.057-.255.086-.377.529-2.194.806-4.55 1.072-6.815l.09-.765c.024-.2.034-.402.045-.603.016-.303.032-.606.092-.903.082-.406.211-.806.339-1.206.212-.66.424-1.322.433-2.014.008-.535-.108-1.089-.224-1.637-.068-.325-.136-.649-.177-.965l-.372-4.572c-.043-.575-.031-1.175-.019-1.78.023-1.111.045-2.239-.272-3.252-.149-.476-.34-.922-.688-1.289-.199-.21-.933-.631-1.645-1.041-.765-.44-1.505-.866-1.53-.998-.015-.08.108-.378.201-.604a3.8 3.8 0 0 0 .09-.227c.28-.826.754-2.792-.181-3.339Zm-2.137 11.434c-.524-.589-1.038-1.034-1.822-1.221-.497.926-.902 1.895-1.307 2.864a55.473 55.473 0 0 1-.761 1.764 44.004 44.004 0 0 1-.806 1.627c-.514 1.001-1.03 2.008-1.387 3.054l2.982-.046 4.097-.362c.02-.388.053-.799.087-1.223.179-2.222.387-4.81-1.083-6.457Z" fill="currentColor"/><path d="M115.538 30c.343.019.643-.05.886.227 1.154 1.322.434 3.153.338 4.668-.242 3.797.562 8.282 3.083 11.253.32.054.63.073.956.068.719-.01 1.274-.253 1.912-.555 3.079-1.454 4.918-4.813 6.911-7.413.627-.819 1.338-1.577 2.069-2.304.953-.949 2.797-2.394 4.198-2.394.37.251.372.309.504.737.686 2.232.033 5.154-.374 7.405-.62 3.436-1.757 6.874-2.709 10.24-.795 2.814-1.397 6.196-2.808 8.752-.506.917-1.224 1.53-2.236 1.812-.48.134-.85.21-1.295-.037-.689-1.705.295-5.973.718-7.88l1.61-9.424c-2.699 1.781-4.618 4.481-7.521 6.01-.542.287-1.154.63-1.777.638-.729.01-1.673-.05-2.327-.372-1.237-.609-2.301-2.146-3.31-3.1-.835 1.467-.868 3.492-1.079 5.137-.103.803-.34 1.572-.457 2.358-.193 1.288-.457 5.937-1.37 6.765-.938.849-2.601.568-3.775.53-.343-2.393.02-5.077.211-7.483.093-1.18-.009-2.6.491-3.703l.104-.212c-.125-.316-.124-.517-.092-.844l.477-3.478.482-4.69c.113-.827.313-1.649.403-2.477.172-1.6-.097-3.247.118-4.846.083-.61.197-1.271.465-1.827.971-2.012 3.208-2.94 5.194-3.561Z" fill="currentColor"/><path d="M81.417 16.004c.496-.027.957.096 1.424.26.77.272 1.426.915 1.781 1.69.16.35.298.695.35 1.085.12.888-.156 1.761-.654 2.467-.653.924-1.702 1.352-2.74 1.494-.835-.04-1.53-.27-2.204-.812-.724-.582-1.251-1.576-1.362-2.541-.085-.74.293-1.73.718-2.296.664-.886 1.675-1.222 2.687-1.347ZM74.226 26.018c.239-.024.5-.034.729.034l.045.082c-1.329 1.235-2.644 2.51-3.525 4.073-1.878 3.334-1.262 7.068.172 10.438l.86 1.929c.207.44.438.866.59 1.327l-.061.099a1.04 1.04 0 0 0-.25-.037h-.084l-1.06-.909c-2.003-1.694-3.95-4.087-4.506-6.608-.107-.488-.123-1.018-.133-1.516-.038-1.82.357-3.48 1.448-5.02 1.344-1.898 3.365-3.423 5.775-3.892ZM90.844 2c.08.03.144.064.211.119.199.161.364.56.477.79.896 1.829 1.224 3.87 1.363 5.896.104 1.511.157 3.074.034 4.586-.073.902-.221 1.763-.368 2.653l-.203 1.352c-.45 2.309-1.168 4.684-2.014 6.87-.795 2.05-1.798 4.107-3.219 5.782-.287.337-.58.684-.95.927-.066.043-.08.02-.153.005-.266-.926 1.997-6.549 2.455-7.92.747-2.24 1.346-4.5 1.797-6.821.18-.919.374-1.847.423-2.784l.044-8.367.013-1.863c.003-.41-.024-.828.09-1.225ZM82.86 39c.392.018.67.129.978.372.712.564 1.164 1.737 1.55 2.55 2.766 5.837 4.156 12.291 5.454 18.577l1.897 9.127 1.97 9.177c.3 1.207.846 2.39 1.343 3.529.344.786.857 1.714.948 2.57l-.079.085c-.409.074-.883-.19-1.237-.375-1.143-.6-1.922-1.573-2.461-2.721-.594-1.266-.915-2.68-1.294-4.02l-1.665-6.018-4.097-14.29-1.943-6.732-.404-1.345c-.137-.492-.269-1.409-.678-1.745-.102-.083-.24-.14-.372-.107-.56.14-1.243 1.982-1.448 2.533-1.007 2.717-1.654 5.589-2.463 8.37L74.76 72.546l-.861 3.053c-.427 1.597-.852 3.186-1.415 4.743-.263.724-.543 1.536-1.019 2.153-.106.138-.158.178-.328.207l-.11-.117c-.097-.697.086-1.571.161-2.277l.72-4.58 1.56-7.585 4.504-18.51.974-3.872c.185-.729.353-1.463.594-2.177.417-1.232 1.09-2.586 1.853-3.652.378-.528.815-.817 1.465-.932Z" fill="currentColor"/><path fill-rule="evenodd" clip-rule="evenodd" d="m192.377 31.225-4.36-.559c-2.004.13-3.977.372-5.398 1.956-1.518 1.693-1.351 4.038-1.197 6.194l.031.435.244 9.474-.129.062c-.809.394-1.978.961-2.288 1.808-.134.369-.049.898.144 1.232.199.347.502.665.795.972.119.125.237.248.345.371.156.177.399.465.478.688.044.125.029.403.017.622a4.3 4.3 0 0 0-.009.22c.003.814-.03 1.544-.208 2.34-.29 1.291-.559 2.639-.573 3.966 0 .057-.002.116-.004.177-.01.292-.022.62.121.849.365.586.847 1.283 1.549 1.442a4.955 4.955 0 0 0 1.643.112c.278-.341.366-.8.45-1.235.015-.077.029-.153.045-.228.074-.357.143-.717.211-1.077.133-.701.266-1.404.445-2.089.236-.903.548-1.778.874-2.651 1.861.987 3.645 2.11 5.429 3.233 1.677 1.055 3.354 2.111 5.096 3.055 1.685.913 3.421 1.784 5.281 2.274.69.177 1.253.223 1.962.197.453-.402.584-.957.622-1.558.048-.738-.228-1.577-.742-2.124-.857-.914-2.068-1.612-3.228-2.28-.482-.278-.956-.551-1.391-.833l-3.148-2.184-.407-.276c-1.78-1.206-3.627-2.457-5.216-3.881a14.212 14.212 0 0 0-.171-.151c-.43-.376-1.151-1.008-1.268-1.403.172-.104.343-.21.516-.316.575-.356 1.158-.715 1.759-1.009a71.674 71.674 0 0 1 1.853-.856c3.768-1.703 9.436-4.265 10.319-7.683.334-1.295.03-2.471-.655-3.592-1.873-3.064-6.468-4.934-9.837-5.694Zm-3.246 5.08c-.985-.121-2.119-.066-3.11-.004l-.569.155-.264.707.18.339.82.135a2.783 2.783 0 0 1 1.859 1.14c.393.565.312 1.24.234 1.885l-.005.041c-.183 1.525-.536 3.038-.887 4.54-.089.382-.178.763-.264 1.144.333.004.733-.166 1.087-.317.112-.047.219-.093.319-.13 1.404-.532 2.745-1.1 4.052-1.846a71.3 71.3 0 0 1 .362-.235c1.528-.986 3.47-2.24 4.003-3.995-.335-.863-2.172-1.64-3.18-2.068l-.299-.128c-1.299-.564-2.932-1.192-4.338-1.364Z" fill="currentColor"/><path d="m221.973 31.776 6.044-.091c1.272.002 2.688-.104 3.927.193.479.115 1.409.351 1.629.806.399.823.09 3.394-.192 4.243-.344.259-.677.214-1.086.215-1.352.002-2.675-.283-4.023-.364.245 1.212.735 2.306.702 3.578-.04 1.491-.464 2.996-.75 4.456l-1.892 9.65c-.498 2.903-.382 5.727-.652 8.63-.08.855-.587 1.298-1.201 1.817-.351.119-.716.242-1.091.236-.453-.006-.871-.122-1.18-.469-.814-.914-.825-2.313-.916-3.47-.315-4.005.071-8.307.539-12.296.092-.785.347-1.54.438-2.333.352-3.08.746-6.185.865-9.283-2.065.35-4.222 1.298-6.291 1.368-.455.015-.85.052-1.262-.165-.221-.282-.269-.473-.318-.831-.163-1.19.075-3.059.865-4.027 1.399-1.717 3.832-1.669 5.845-1.863Z" fill="currentColor"/></svg>
